icons/svg/barcode-scan.svg

﻿<?xml version="1.0" encoding="utf-8"?>
<!DOCTYPE svg PUBLIC "-//W3C//DTD SVG 1.1//EN" "http://www.w3.org/Graphics/SVG/1.1/DTD/svg11.dtd">
<svg xmlns="http://www.w3.org/2000/svg" xmlns:xlink="http://www.w3.org/1999/xlink" version="1.1" baseProfile="full" width="24" height="24" viewBox="0 0 24.00 24.00" enable-background="new 0 0 24.00 24.00" xml:space="preserve">
	<path fill="#000000" fill-opacity="1" stroke-width="0.2" stroke-linejoin="miter" d="M 4,6L 6,6L 6,18L 4,18L 4,6 Z M 7,6.00001L 7.99999,6.00001L 7.99999,18L 7,18L 7,6.00001 Z M 9,6.00001L 12,6.00001L 12,18L 9,18L 9,6.00001 Z M 13,6.00001L 14,6.00001L 14,18L 13,18L 13,6.00001 Z M 16,6.00001L 18,6.00001L 18,18L 16,18L 16,6.00001 Z M 19,6L 20,6.00001L 20,18L 19,18L 19,6 Z M 2.00001,4L 2.00001,8L 5.72205e-006,8L 5.72205e-006,4C 5.72205e-006,2.9 0.900007,2 2.00001,2L 6.00001,2L 6.00001,4L 2.00001,4 Z M 22,2C 23.1,2 24,2.9 24,4L 24,8L 22,8L 22,4L 18,4L 18,2L 22,2 Z M 2.00001,16L 2.00001,20L 6,20L 6,22L 2.00001,22C 0.900007,22 5.72205e-006,21.1 5.72205e-006,20L 5.72205e-006,16L 2.00001,16 Z M 22,20L 22,16L 24,16L 24,20C 24,21.1 23.1,22 22,22L 18,22L 18,20L 22,20 Z "/>
</svg>

<svg xmlns="http://www.w3.org/2000/svg" version="1.1" baseProfile="full" width="24" height="24" viewBox="0 0 24.00 24.00" xml:space="preserve"><path fill="#000" fill-opacity="1" stroke-width=".2" stroke-linejoin="miter" d="M4 6h2v12H4V6zm3 0h1v12H7V6zm2 0h3v12H9V6zm4 0h1v12h-1V6zm3 0h2v12h-2V6zm3 0h1v12h-1V6zM2 4v4H0V4c0-1.1.9-2 2-2h4v2H2zm20-2c1.1 0 2 .9 2 2v4h-2V4h-4V2h4zM2 16v4h4v2H2c-1.1 0-2-.9-2-2v-4h2zm20 4v-4h2v4c0 1.1-.9 2-2 2h-4v-2h4z"/></svg>
